X:1
T:Udvaromon aranyvályú, aranykút
C:Hungarian folk song
Z:Public Domain
L:1/8
M:4/4
K:C
V:1 treble nm="Voice"
%%MIDI program 52
V:1
 C3 D E E3 | FEDE FE D2 | G3 D E D3 | EDCD ED C2 | C3 D E E3 | AAAA AA G2 | CG,CD EDCG, | %7
w: Ud- va- ro- mon|a- rany- vá- lyú, a- rany- kút,|Ab- ból i- szik|a- rany- ka- kas, a- rany- tyúk,|A- rany- ka- kas|mind azt ku- ko- ré- kol- ja:|A sze- re- tőm Ko- lozs- vá- ron|
 A, A,3 A,2 z2 |] %8
w: ka- to- na.|

